;FLAVOR:UltiGCode
;TIME:2398
;MATERIAL:5103
;MATERIAL2:0
;NOZZLE_DIAMETER:0.4
;MINX:88.655
;MINY:88.654
;MINZ:0.27
;MAXX:134.34
;MAXY:134.346
;MAXZ:48.47
;Generated with Cura_SteamEngine 4.9.1
M82 ;absolute extrusion mode
G0 F3000 Y50 ;avoid prime blob
G92 E0
G92 E0
G10
;LAYER_COUNT:244
;LAYER:0
M107
G0 F4500 X95.4 Y95.285 Z0.27
;TYPE:SKIRT
G11
G1 F1800 X96.194 Y94.533 E0.10334
G1 X96.636 Y94.145 E0.15892
G1 X97.493 Y93.447 E0.26337
G1 X97.955 Y93.098 E0.31809
G1 X98.878 Y92.453 E0.4245
G1 X99.37 Y92.136 E0.47981
G1 X100.312 Y91.577 E0.58332
G1 X100.829 Y91.295 E0.63897
G1 X101.82 Y90.803 E0.74353
G1 X102.341 Y90.568 E0.79754
G1 X103.368 Y90.148 E0.90239
G1 X103.917 Y89.947 E0.95764
G1 X104.967 Y89.606 E1.06197
G1 X105.532 Y89.445 E1.11749
G1 X106.61 Y89.182 E1.22234
G1 X107.165 Y89.068 E1.27589
G1 X108.254 Y88.884 E1.38026
G1 X108.846 Y88.807 E1.43667
G1 X109.946 Y88.706 E1.54106
G1 X110.523 Y88.674 E1.59567
G1 X111.628 Y88.654 E1.70011
G1 X112.208 Y88.665 E1.75493
G1 X113.324 Y88.727 E1.86055
G1 X113.903 Y88.781 E1.91551
G1 X114.987 Y88.922 E2.01881
G1 X115.561 Y89.018 E2.0738
G1 X116.657 Y89.244 E2.17955
G1 X117.23 Y89.385 E2.23532
G1 X118.28 Y89.685 E2.33851
G1 X118.822 Y89.861 E2.39237
G1 X119.872 Y90.245 E2.49802
G1 X120.422 Y90.47 E2.55417
G1 X121.42 Y90.923 E2.65775
G1 X121.93 Y91.177 E2.71159
G1 X122.913 Y91.712 E2.81735
G1 X123.414 Y92.01 E2.87243
G1 X124.334 Y92.603 E2.97587
G1 X124.809 Y92.934 E3.03058
G1 X125.703 Y93.608 E3.13638
G1 X126.16 Y93.98 E3.19207
G1 X126.984 Y94.704 E3.29572
G1 X127.414 Y95.112 E3.35174
G1 X128.191 Y95.906 E3.45672
G1 X128.571 Y96.323 E3.51004
G1 X129.282 Y97.162 E3.61396
G1 X129.647 Y97.627 E3.66983
G1 X130.306 Y98.535 E3.77585
G1 X130.626 Y99.012 E3.83013
G1 X131.2 Y99.938 E3.93309
G1 X131.493 Y100.452 E3.989
G1 X132.004 Y101.434 E4.09361
G1 X132.251 Y101.954 E4.14801
G1 X132.695 Y102.985 E4.25409
G1 X132.907 Y103.533 E4.30961
G1 X133.268 Y104.58 E4.41427
G1 X133.437 Y105.135 E4.4691
G1 X133.716 Y106.191 E4.57231
G1 X133.842 Y106.753 E4.62674
G1 X134.048 Y107.853 E4.7325
G1 X134.135 Y108.435 E4.78811
G1 X134.257 Y109.535 E4.8927
G1 X134.3 Y110.117 E4.94784
G1 X134.34 Y111.216 E5.05177
G1 X134.34 Y111.795 E5.10648
G1 X134.299 Y112.895 E5.21051
G1 X134.256 Y113.47 E5.265
G1 X134.134 Y114.57 E5.36958
G1 X134.048 Y115.148 E5.42481
G1 X133.842 Y116.251 E5.53084
G1 X133.712 Y116.825 E5.58646
G1 X133.432 Y117.88 E5.68961
G1 X133.267 Y118.425 E5.74342
G1 X132.907 Y119.47 E5.84787
G1 X132.692 Y120.024 E5.90402
G1 X132.249 Y121.051 E6.00972
G1 X132.003 Y121.568 E6.06382
G1 X131.495 Y122.544 E6.1678
G1 X131.201 Y123.061 E6.22401
G1 X130.62 Y123.997 E6.32811
G1 X130.302 Y124.47 E6.38197
G1 X129.645 Y125.375 E6.48766
G1 X129.279 Y125.842 E6.54373
G1 X128.566 Y126.683 E6.64792
G1 X128.18 Y127.105 E6.70196
G1 X127.4 Y127.9 E6.80721
G1 X126.977 Y128.3 E6.86223
G1 X126.152 Y129.025 E6.96602
G1 X125.689 Y129.402 E7.02244
G1 X124.8 Y130.071 E7.12758
G1 X124.331 Y130.398 E7.18161
G1 X123.411 Y130.991 E7.28505
G1 X122.915 Y131.286 E7.33958
G1 X121.932 Y131.822 E7.44539
G1 X121.409 Y132.083 E7.50062
G1 X120.408 Y132.536 E7.60445
G1 X119.872 Y132.755 E7.65917
G1 X118.822 Y133.14 E7.76486
G1 X118.261 Y133.322 E7.82059
G1 X117.211 Y133.62 E7.92373
G1 X116.653 Y133.756 E7.97801
G1 X115.558 Y133.982 E8.08367
G1 X114.98 Y134.079 E8.13905
G1 X113.894 Y134.22 E8.24254
G1 X113.31 Y134.274 E8.29796
G1 X112.195 Y134.335 E8.40349
G1 X111.622 Y134.346 E8.45765
G1 X110.517 Y134.326 E8.56209
G1 X109.934 Y134.293 E8.61727
G1 X108.833 Y134.191 E8.72176
G1 X108.247 Y134.115 E8.7776
G1 X107.158 Y133.931 E8.88197
G1 X106.593 Y133.814 E8.93649
G1 X105.517 Y133.55 E9.04119
G1 X104.959 Y133.391 E9.09602
G1 X103.91 Y133.05 E9.20026
G1 X103.359 Y132.848 E9.25572
G1 X102.329 Y132.426 E9.3609
G1 X101.819 Y132.195 E9.41381
G1 X100.828 Y131.704 E9.51833
G1 X100.291 Y131.412 E9.57609
G1 X99.345 Y130.848 E9.68017
G1 X98.868 Y130.539 E9.73388
G1 X97.952 Y129.899 E9.83948
G1 X97.484 Y129.546 E9.89487
G1 X96.626 Y128.846 E9.99951
G1 X96.185 Y128.458 E10.05502
G1 X95.392 Y127.706 E10.1583
G1 X94.995 Y127.302 E10.21182
G1 X94.239 Y126.474 E10.31778
G1 X93.855 Y126.019 E10.37404
G1 X93.18 Y125.157 E10.4775
G1 X92.838 Y124.685 E10.53259
G1 X92.225 Y123.77 E10.63666
G1 X91.931 Y123.297 E10.68929
G1 X91.379 Y122.332 E10.79435
G1 X91.097 Y121.791 E10.852
G1 X90.619 Y120.781 E10.9576
G1 X90.396 Y120.263 E11.01089
G1 X89.999 Y119.241 E11.1145
G1 X89.805 Y118.68 E11.1706
G1 X89.484 Y117.624 E11.2749
G1 X89.339 Y117.075 E11.32856
G1 X89.093 Y115.99 E11.43369
G1 X88.982 Y115.393 E11.49108
G1 X88.82 Y114.29 E11.59643
G1 X88.758 Y113.734 E11.6493
G1 X88.677 Y112.653 E11.75174
G1 X88.655 Y112.065 E11.80734
G1 X88.655 Y110.936 E11.91403
G1 X88.677 Y110.351 E11.96935
G1 X88.758 Y109.263 E12.07245
G1 X88.822 Y108.688 E12.12713
G1 X88.987 Y107.58 E12.23299
G1 X89.095 Y107.002 E12.28855
G1 X89.34 Y105.919 E12.39348
G1 X89.49 Y105.354 E12.44873
G1 X89.813 Y104.298 E12.55308
G1 X90.004 Y103.748 E12.6081
G1 X90.4 Y102.729 E12.71141
G1 X90.623 Y102.21 E12.76479
G1 X91.103 Y101.197 E12.87073
G1 X91.384 Y100.66 E12.928
G1 X91.933 Y99.7 E13.03251
G1 X92.225 Y99.228 E13.08496
G1 X92.841 Y98.308 E13.18959
G1 X93.196 Y97.819 E13.24669
G1 X93.872 Y96.96 E13.34999
G1 X94.242 Y96.524 E13.40403
G1 X94.996 Y95.697 E13.50978
G1 X95.4 Y95.285 E13.56431
G0 F4500 X95.64 Y95.539
G1 F1800 X96.434 Y94.787 E13.66766
G1 X96.857 Y94.416 E13.72083
G1 X97.714 Y93.718 E13.82528
G1 X98.156 Y93.385 E13.87757
G1 X99.079 Y92.74 E13.98398
G1 X99.549 Y92.437 E14.03683
G1 X100.491 Y91.878 E14.14034
G1 X100.985 Y91.609 E14.1935
G1 X101.976 Y91.117 E14.29805
G1 X102.474 Y90.892 E14.34969
G1 X103.501 Y90.472 E14.45455
G1 X104.025 Y90.28 E14.50728
G1 X105.075 Y89.939 E14.61161
G1 X105.615 Y89.785 E14.66467
G1 X106.693 Y89.522 E14.76953
G1 X107.223 Y89.413 E14.82067
G1 X108.312 Y89.229 E14.92504
G1 X108.878 Y89.156 E14.97897
G1 X109.978 Y89.055 E15.08335
G1 X110.53 Y89.024 E15.1356
G1 X111.635 Y89.004 E15.24004
G1 X112.188 Y89.015 E15.29231
G1 X113.304 Y89.077 E15.39793
G1 X113.858 Y89.128 E15.45051
G1 X114.942 Y89.269 E15.55381
G1 X115.491 Y89.361 E15.60641
G1 X116.587 Y89.587 E15.71216
G1 X117.134 Y89.722 E15.76541
G1 X118.184 Y90.022 E15.8686
G1 X118.702 Y90.19 E15.92006
G1 X119.752 Y90.574 E16.02571
G1 X120.277 Y90.789 E16.07933
G1 X121.275 Y91.242 E16.1829
G1 X121.762 Y91.484 E16.23429
G1 X122.745 Y92.019 E16.34005
G1 X123.225 Y92.304 E16.3928
G1 X124.145 Y92.897 E16.49624
G1 X124.598 Y93.213 E16.54843
G1 X125.492 Y93.887 E16.65423
G1 X125.929 Y94.243 E16.7075
G1 X126.753 Y94.967 E16.81115
G1 X127.164 Y95.357 E16.8647
G1 X127.941 Y96.151 E16.96968
G1 X128.304 Y96.549 E17.02059
G1 X129.015 Y97.388 E17.12451
G1 X129.364 Y97.833 E17.17795
G1 X130.023 Y98.741 E17.28398
G1 X130.329 Y99.196 E17.33579
G1 X130.903 Y100.122 E17.43875
G1 X131.182 Y100.613 E17.49212
G1 X131.693 Y101.595 E17.59673
G1 X131.929 Y102.093 E17.64881
G1 X132.373 Y103.124 E17.75489
G1 X132.576 Y103.647 E17.8079
G1 X132.937 Y104.694 E17.91256
G1 X133.098 Y105.225 E17.96499
G1 X133.377 Y106.281 E18.06821
G1 X133.498 Y106.818 E18.12023
G1 X133.704 Y107.918 E18.22599
G1 X133.787 Y108.473 E18.27902
G1 X133.909 Y109.573 E18.3836
G1 X133.95 Y110.129 E18.43629
G1 X133.99 Y111.228 E18.54021
G1 X133.99 Y111.782 E18.59257
G1 X133.949 Y112.882 E18.69659
G1 X133.908 Y113.432 E18.74871
G1 X133.786 Y114.532 E18.8533
G1 X133.704 Y115.084 E18.90603
G1 X133.498 Y116.187 E19.01207
G1 X133.374 Y116.735 E19.06516
G1 X133.094 Y117.79 E19.16831
G1 X132.936 Y118.311 E19.21976
G1 X132.576 Y119.356 E19.32421
G1 X132.371 Y119.885 E19.37782
G1 X131.928 Y120.912 E19.48352
G1 X131.693 Y121.406 E19.53521
G1 X131.185 Y122.382 E19.63919
G1 X130.903 Y122.877 E19.69303
G1 X130.322 Y123.813 E19.79713
G1 X130.019 Y124.265 E19.84856
G1 X129.362 Y125.17 E19.95424
G1 X129.012 Y125.615 E20.00774
G1 X128.299 Y126.456 E20.11193
G1 X127.93 Y126.86 E20.16364
G1 X127.15 Y127.655 E20.26889
G1 X126.746 Y128.038 E20.3215
G1 X125.921 Y128.763 E20.42528
G1 X125.479 Y129.123 E20.47915
G1 X124.59 Y129.792 E20.5843
G1 X124.142 Y130.104 E20.63589
G1 X123.222 Y130.697 E20.73932
G1 X122.747 Y130.979 E20.79152
G1 X121.764 Y131.515 E20.89733
G1 X121.265 Y131.764 E20.95003
G1 X120.264 Y132.217 E21.05386
G1 X119.752 Y132.426 E21.10612
G1 X118.702 Y132.811 E21.2118
G1 X118.166 Y132.985 E21.26506
G1 X117.116 Y133.283 E21.3682
G1 X116.582 Y133.414 E21.42016
G1 X115.487 Y133.64 E21.52582
G1 X114.935 Y133.732 E21.5787
G1 X113.849 Y133.873 E21.68219
G1 X113.291 Y133.925 E21.73515
G1 X112.176 Y133.986 E21.84068
G1 X111.629 Y133.996 E21.89238
G1 X110.524 Y133.976 E21.99682
G1 X109.966 Y133.945 E22.04963
G1 X108.865 Y133.843 E22.15412
G1 X108.305 Y133.77 E22.20749
G1 X107.216 Y133.586 E22.31186
G1 X106.677 Y133.474 E22.36388
G1 X105.601 Y133.21 E22.46858
G1 X105.068 Y133.058 E22.52095
G1 X104.019 Y132.717 E22.62519
G1 X103.492 Y132.524 E22.67823
G1 X102.462 Y132.102 E22.78341
G1 X101.974 Y131.882 E22.834
G1 X100.983 Y131.391 E22.93851
G1 X100.471 Y131.111 E22.99366
G1 X99.525 Y130.547 E23.09774
G1 X99.068 Y130.253 E23.14909
G1 X98.152 Y129.613 E23.25469
G1 X97.705 Y129.275 E23.30765
G1 X96.847 Y128.575 E23.41229
G1 X96.426 Y128.204 E23.46532
G1 X95.633 Y127.452 E23.56859
G1 X95.254 Y127.066 E23.61971
G1 X94.498 Y126.238 E23.72567
G1 X94.13 Y125.803 E23.77951
G1 X93.455 Y124.941 E23.88297
G1 X93.128 Y124.49 E23.93562
G1 X92.515 Y123.575 E24.0397
G1 X92.235 Y123.123 E24.08994
G1 X91.683 Y122.158 E24.195
G1 X91.413 Y121.641 E24.25012
G1 X90.935 Y120.631 E24.35571
G1 X90.723 Y120.137 E24.40651
G1 X90.326 Y119.115 E24.51012
G1 X90.14 Y118.579 E24.56374
G1 X89.819 Y117.523 E24.66804
G1 X89.68 Y116.998 E24.71936
G1 X89.434 Y115.913 E24.82449
G1 X89.328 Y115.342 E24.87938
G1 X89.166 Y114.239 E24.98473
G1 X89.107 Y113.708 E25.03522
G1 X89.026 Y112.627 E25.13766
G1 X89.005 Y112.065 E25.1908
G1 X89.005 Y110.936 E25.29749
G1 X89.026 Y110.377 E25.35036
G1 X89.107 Y109.289 E25.45346
G1 X89.168 Y108.74 E25.50566
G1 X89.333 Y107.632 E25.61152
G1 X89.436 Y107.08 E25.66458
G1 X89.681 Y105.997 E25.76951
G1 X89.825 Y105.456 E25.82241
G1 X90.148 Y104.4 E25.92677
G1 X90.33 Y103.875 E25.97928
G1 X90.726 Y102.856 E26.08259
G1 X90.94 Y102.36 E26.13364
G1 X91.42 Y101.347 E26.23957
G1 X91.688 Y100.833 E26.29435
G1 X92.237 Y99.873 E26.39886
G1 X92.516 Y99.422 E26.44897
G1 X93.132 Y98.502 E26.5536
G1 X93.472 Y98.035 E26.60819
G1 X94.148 Y97.176 E26.71149
G1 X94.5 Y96.76 E26.76298
G1 X95.254 Y95.933 E26.86874
G1 X95.64 Y95.539 E26.92087
G0 F4500 X95.881 Y95.794
G1 F1800 X96.675 Y95.042 E27.02421
G1 X97.078 Y94.688 E27.0749
G1 X97.935 Y93.99 E27.17935
G1 X98.356 Y93.672 E27.22921
G1 X99.279 Y93.027 E27.33562
G1 X99.727 Y92.738 E27.386
G1 X100.669 Y92.179 E27.48951
G1 X101.14 Y91.922 E27.54022
G1 X102.131 Y91.43 E27.64477
G1 X102.606 Y91.216 E27.694
G1 X103.633 Y90.796 E27.79886
G1 X104.133 Y90.613 E27.84917
G1 X105.183 Y90.272 E27.9535
G1 X105.698 Y90.125 E28.00411
G1 X106.776 Y89.862 E28.10897
G1 X107.282 Y89.758 E28.15779
G1 X108.371 Y89.574 E28.26216
G1 X108.91 Y89.504 E28.31352
G1 X110.01 Y89.403 E28.41791
G1 X110.536 Y89.374 E28.46769
G1 X111.641 Y89.354 E28.57213
G1 X112.169 Y89.364 E28.62203
G1 X113.285 Y89.426 E28.72766
G1 X113.812 Y89.475 E28.77767
G1 X114.896 Y89.616 E28.88097
G1 X115.42 Y89.704 E28.93119
G1 X116.516 Y89.93 E29.03694
G1 X117.038 Y90.058 E29.08773
G1 X118.088 Y90.358 E29.19092
G1 X118.581 Y90.518 E29.2399
G1 X119.631 Y90.902 E29.34556
G1 X120.133 Y91.108 E29.39683
G1 X121.131 Y91.561 E29.50041
G1 X121.595 Y91.792 E29.54939
G1 X122.578 Y92.327 E29.65515
G1 X123.035 Y92.598 E29.70536
G1 X123.955 Y93.191 E29.80879
G1 X124.387 Y93.493 E29.8586
G1 X125.281 Y94.167 E29.9644
G1 X125.698 Y94.506 E30.01519
G1 X126.522 Y95.23 E30.11885
G1 X126.914 Y95.602 E30.16991
G1 X127.691 Y96.396 E30.2749
G1 X128.037 Y96.775 E30.32339
G1 X128.748 Y97.614 E30.42732
G1 X129.081 Y98.039 E30.47834
G1 X129.74 Y98.947 E30.58437
G1 X130.031 Y99.381 E30.63374
G1 X130.605 Y100.307 E30.7367
G1 X130.872 Y100.775 E30.78762
G1 X131.383 Y101.757 E30.89223
G1 X131.608 Y102.231 E30.94181
G1 X132.052 Y103.262 E31.04789
G1 X132.245 Y103.761 E31.09845
G1 X132.606 Y104.808 E31.20311
G1 X132.76 Y105.314 E31.25309
G1 X133.039 Y106.37 E31.35631
G1 X133.154 Y106.882 E31.4059
G1 X133.36 Y107.982 E31.51165
G1 X133.439 Y108.512 E31.56229
G1 X133.561 Y109.612 E31.66688
G1 X133.6 Y110.142 E31.7171
G1 X133.64 Y111.241 E31.82102
G1 X133.64 Y111.769 E31.87092
G1 X133.599 Y112.869 E31.97494
G1 X133.56 Y113.393 E32.0246
G1 X133.438 Y114.493 E32.12918
G1 X133.36 Y115.019 E32.17944
G1 X133.154 Y116.122 E32.28547
G1 X133.036 Y116.646 E32.33623
G1 X132.756 Y117.701 E32.43938
G1 X132.605 Y118.197 E32.48837
G1 X132.245 Y119.242 E32.59282
G1 X132.049 Y119.747 E32.64401
G1 X131.606 Y120.774 E32.74971
G1 X131.382 Y121.245 E32.799
G1 X130.874 Y122.221 E32.90297
G1 X130.606 Y122.692 E32.95418
G1 X130.025 Y123.628 E33.05829
G1 X129.735 Y124.059 E33.10738
G1 X129.078 Y124.964 E33.21306
G1 X128.745 Y125.389 E33.26409
G1 X128.032 Y126.23 E33.36828
G1 X127.681 Y126.615 E33.41751
G1 X126.901 Y127.41 E33.52276
G1 X126.515 Y127.775 E33.57296
G1 X125.69 Y128.5 E33.67675
G1 X125.268 Y128.843 E33.72814
G1 X124.379 Y129.512 E33.83328
G1 X123.952 Y129.81 E33.88249
G1 X123.032 Y130.403 E33.98593
G1 X122.58 Y130.671 E34.03558
G1 X121.597 Y131.207 E34.14139
G1 X121.12 Y131.445 E34.19176
G1 X120.119 Y131.898 E34.29559
G1 X119.631 Y132.097 E34.3454
G1 X118.581 Y132.482 E34.45108
G1 X118.07 Y132.648 E34.50186
G1 X117.02 Y132.946 E34.605
G1 X116.511 Y133.071 E34.65453
G1 X115.416 Y133.297 E34.76019
G1 X114.89 Y133.385 E34.81059
G1 X113.804 Y133.526 E34.91407
G1 X113.272 Y133.575 E34.96456
G1 X112.157 Y133.636 E35.07009
G1 X111.635 Y133.646 E35.11942
G1 X110.53 Y133.626 E35.22386
G1 X109.998 Y133.596 E35.27422
G1 X108.897 Y133.494 E35.37871
G1 X108.364 Y133.425 E35.4295
G1 X107.275 Y133.241 E35.53387
G1 X106.76 Y133.134 E35.58357
G1 X105.684 Y132.87 E35.68827
G1 X105.176 Y132.726 E35.73817
G1 X104.127 Y132.385 E35.8424
G1 X103.625 Y132.2 E35.89296
G1 X102.595 Y131.778 E35.99815
G1 X102.13 Y131.568 E36.04637
G1 X101.139 Y131.077 E36.15088
G1 X100.65 Y130.811 E36.20348
G1 X99.704 Y130.247 E36.30756
G1 X99.269 Y129.966 E36.3565
G1 X98.353 Y129.326 E36.4621
G1 X97.926 Y129.003 E36.5127
G1 X97.068 Y128.303 E36.61734
G1 X96.667 Y127.95 E36.66782
G1 X95.874 Y127.198 E36.7711
G1 X95.512 Y126.83 E36.81988
G1 X94.756 Y126.002 E36.92583
G1 X94.406 Y125.588 E36.97707
G1 X93.731 Y124.726 E37.08053
G1 X93.419 Y124.295 E37.13081
G1 X92.806 Y123.38 E37.23489
G1 X92.539 Y122.95 E37.28272
G1 X91.987 Y121.985 E37.38778
G1 X91.73 Y121.491 E37.4404
G1 X91.252 Y120.481 E37.54599
G1 X91.049 Y120.01 E37.59446
G1 X90.652 Y118.988 E37.69807
G1 X90.475 Y118.477 E37.74917
G1 X90.154 Y117.421 E37.85348
G1 X90.022 Y116.921 E37.90234
G1 X89.776 Y115.836 E38.00748
G1 X89.674 Y115.292 E38.05978
G1 X89.512 Y114.189 E38.16513
G1 X89.456 Y113.682 E38.21334
G1 X89.375 Y112.601 E38.31578
G1 X89.355 Y112.065 E38.36647
G1 X89.355 Y110.936 E38.47316
G1 X89.375 Y110.403 E38.52356
G1 X89.456 Y109.315 E38.62666
G1 X89.514 Y108.791 E38.67648
G1 X89.679 Y107.683 E38.78234
G1 X89.778 Y107.157 E38.83292
G1 X90.023 Y106.074 E38.93785
G1 X90.16 Y105.558 E38.9883
G1 X90.483 Y104.502 E39.09266
G1 X90.656 Y104.002 E39.14266
G1 X91.052 Y102.983 E39.24597
G1 X91.256 Y102.51 E39.29465
G1 X91.736 Y101.497 E39.40058
G1 X91.992 Y101.007 E39.45282
G1 X92.541 Y100.047 E39.55733
G1 X92.807 Y99.617 E39.60511
G1 X93.423 Y98.697 E39.70974
G1 X93.747 Y98.252 E39.76176
G1 X94.423 Y97.393 E39.86505
G1 X94.759 Y96.996 E39.9142
G1 X95.513 Y96.169 E40.01996
G1 X95.881 Y95.794 E40.06961
G0 F4500 X96.122 Y96.048
G1 F1800 X96.916 Y95.296 E40.17296
G1 X97.299 Y94.959 E40.22117
G1 X98.156 Y94.261 E40.32562
G1 X98.557 Y93.959 E40.37305
G1 X99.48 Y93.314 E40.47946
G1 X99.906 Y93.039 E40.52738
G1 X100.848 Y92.48 E40.63089
G1 X101.296 Y92.236 E40.6791
G1 X102.287 Y91.744 E40.78366
G1 X102.739 Y91.54 E40.83052
G1 X103.766 Y91.12 E40.93537
G1 X104.241 Y90.946 E40.98318
G1 X105.291 Y90.605 E41.08751
G1 X105.781 Y90.465 E41.13566
